assets/face_id.svg

<svg fill="none" height="18" viewBox="0 0 18 18" width="18" xmlns="http://www.w3.org/2000/svg"><g fill="#fff"><path d="m6.38477 6.82692c0-.24812-.20137-.44949-.44949-.44949s-.44949.20137-.44949.44949v1.31971c0 .24811.20137.44949.44949.44949s.44949-.20138.44949-.44949z"/><path clip-rule="evenodd" d="m5.93528 6.27743c.30335 0 .54949.24615.54949.54949v1.31971c0 .30334-.24614.54949-.54949.54949s-.54949-.24615-.54949-.54949v-1.31971c0-.30334.24614-.54949.54949-.54949zm0 .1c.24812 0 .44949.20137.44949.44949v1.31971c0 .24811-.20137.44949-.44949.44949s-.44949-.20138-.44949-.44949v-1.31971c0-.24812.20137-.44949.44949-.44949z" fill-rule="evenodd"/><path d="m12.8971 8.14663v-1.31971c0-.24812-.2014-.44949-.4495-.44949s-.4495.20137-.4495.44949v1.31971c0 .24811.2014.44949.4495.44949s.4495-.20138.4495-.44949z"/><path clip-rule="evenodd" d="m12.9971 6.82692v1.31971c0 .30334-.2461.54949-.5495.54949-.3033 0-.5495-.24615-.5495-.54949v-1.31971c0-.30334.2462-.54949.5495-.54949.3034 0 .5495.24615.5495.54949zm-.1 0v1.31971c0 .24811-.2014.44949-.4495.44949s-.4495-.20138-.4495-.44949v-1.31971c0-.24812.2014-.44949.4495-.44949s.4495.20137.4495.44949z" fill-rule="evenodd"/><path d="m8.49385 11.1129c.40814 0 .73357-.1078.9709-.3236.32363-.2949.33982-.6616.33982-.7336v-3.34596c0-.24812-.20138-.44949-.44949-.44949-.24812 0-.44949.20137-.44949.44949v3.33166c-.01978.1312-.24273.1959-.57175.1636-.24812-.0252-.46747.1582-.49085.4045-.02337.2481.15822.4675.40454.4909.0863.0089.16721.0125.24632.0125z"/><path clip-rule="evenodd" d="m9.53202 10.8633c-.26046.2368-.61237.3496-1.03817.3496-.08223 0-.16661-.0037-.25668-.0131-.30149-.0286-.52227-.2968-.49374-.5997.02854-.3007.29635-.5254.60035-.4946.15752.0154.28158.0067.36428-.0171.07553-.0217.09341-.0475.09753-.058v.011h.1l-.09889-.0149c-.00012.0008-.00042.0021-.00111.0039v-3.32066c0-.30335.24614-.54949.54949-.54949.30334 0 .54949.24614.54949.54949v3.34596c0 .0834-.01833.4849-.37255.8076z" fill-rule="evenodd"/><path d="m9.18416 13.8621c1.19744 0 2.31934-.5052 2.92884-1.3179.1493-.1978.1097-.4801-.0899-.6293-.1977-.1492-.48-.1097-.6292.0899-.4441.5915-1.291.9583-2.20974.9583-.91876 0-1.7656-.3668-2.20969-.9583-.14923-.1978-.43151-.2391-.62929-.0899-.19777.1492-.23913.4315-.0899.6293.60951.8127 1.73144 1.3179 2.92888 1.3179z"/><path clip-rule="evenodd" d="m6.97447 12.0048c.44409.5915 1.29093.9583 2.20969.9583.91874 0 1.76564-.3668 2.20974-.9583.1492-.1996.4315-.2391.6292-.0899.1996.1492.2392.4315.0899.6293-.6095.8127-1.7314 1.3179-2.92884 1.3179s-2.31937-.5052-2.92888-1.3179c-.14923-.1978-.10787-.4801.0899-.6293.19778-.1492.48006-.1079.62929.0899zm-.7991.5995c-.18284-.2425-.13164-.5872.10958-.7692.24246-.183.5873-.1318.76934.1095.42062.5602 1.23404.9185 2.12987.9185.89584 0 1.70914-.3581 2.12974-.9183.1824-.2438.5273-.2922.7693-.1099.2438.1824.2922.5275.1098.7694-.632.8424-1.7863 1.3578-3.00884 1.3578s-2.37688-.5154-3.00879-1.3578z" fill-rule="evenodd"/><path d="m.999902 3.8348v1.65052c0 .24812.201368.44949.449488.44949s.44949-.20137.44949-.44949v-1.65052c0-1.06799.86842-1.93641 1.93461-1.93641h1.63075c.24811 0 .44949-.20137.44949-.44949 0-.24811-.20138-.449486-.44949-.449486h-1.63075c-1.56243 0-2.833588 1.271156-2.833588 2.835386z"/><path clip-rule="evenodd" d="m.899902 5.48532v-1.65052c0-1.61942 1.315888-2.935386 2.933588-2.935386h1.63075c.30334 0 .54949.246146.54949.549486 0 .30335-.24615.54949-.54949.54949h-1.63075c-1.0109 0-1.83461.82359-1.83461 1.83641v1.65052c0 .30335-.24614.54949-.54949.54949-.30334 0-.549488-.24614-.549488-.54949zm.1 0v-1.65052c0-1.56423 1.271158-2.835386 2.833588-2.835386h1.63075c.24811 0 .44949.201376.44949.449486 0 .24812-.20138.44949-.44949.44949h-1.63075c-1.06619 0-1.93461.86842-1.93461 1.93641v1.65052c0 .24812-.20137.44949-.44949.44949s-.449488-.20137-.449488-.44949z" fill-rule="evenodd"/><path d="m17.0018 3.8348c0-1.56243-1.2712-2.835386-2.8354-2.835386h-1.6307c-.2482 0-.4495.201376-.4495.449486 0 .24812.2013.44949.4495.44949h1.6307c1.068 0 1.9364.86842 1.9364 1.93641v1.65052c0 .24812.2014.44949.4495.44949s.4495-.20137.4495-.44949z"/><path clip-rule="evenodd" d="m14.1664.899414c1.6195 0 2.9354 1.317766 2.9354 2.935386v1.65052c0 .30335-.2462.54949-.5495.54949s-.5495-.24614-.5495-.54949v-1.65052c0-1.01276-.8236-1.83641-1.8364-1.83641h-1.6307c-.3034 0-.5495-.24614-.5495-.54949 0-.30334.2461-.549486.5495-.549486zm0 .1c1.5642 0 2.8354 1.272956 2.8354 2.835386v1.65052c0 .24812-.2014.44949-.4495.44949s-.4495-.20137-.4495-.44949v-1.65052c0-1.06799-.8684-1.93641-1.9364-1.93641h-1.6307c-.2482 0-.4495-.20137-.4495-.44949 0-.24811.2013-.449486.4495-.449486z" fill-rule="evenodd"/><path d="m17.0018 12.5529c0-.2481-.2014-.4495-.4495-.4495s-.4495.2014-.4495.4495v1.6128c0 1.068-.8684 1.9346-1.9364 1.9346h-1.6307c-.2482 0-.4495.2013-.4495.4495 0 .2481.2013.4495.4495.4495h1.6307c1.5624 0 2.8354-1.2712 2.8354-2.8336z"/><path clip-rule="evenodd" d="m16.5523 12.0034c.3033 0 .5495.2462.5495.5495v1.6128c0 1.6177-1.3178 2.9336-2.9354 2.9336h-1.6307c-.3034 0-.5495-.2462-.5495-.5495 0-.3034.2461-.5495.5495-.5495h1.6307c1.0129 0 1.8364-.822 1.8364-1.8346v-1.6128c0-.3033.2462-.5495.5495-.5495zm0 .1c.2481 0 .4495.2014.4495.4495v1.6128c0 1.5624-1.273 2.8336-2.8354 2.8336h-1.6307c-.2482 0-.4495-.2014-.4495-.4495 0-.2482.2013-.4495.4495-.4495h1.6307c1.068 0 1.9364-.8666 1.9364-1.9346v-1.6128c0-.2481.2014-.4495.4495-.4495z" fill-rule="evenodd"/><path d="m.999902 14.1657c0 1.5624 1.271158 2.8336 2.833588 2.8336h1.63075c.24811 0 .44949-.2014.44949-.4495 0-.2482-.20138-.4495-.44949-.4495h-1.63075c-1.06799 0-1.93461-.8684-1.93461-1.9346v-1.6128c0-.2481-.20137-.4495-.44949-.4495s-.449488.2014-.449488.4495z"/><path clip-rule="evenodd" d="m3.83349 17.0993c-1.61766 0-2.933588-1.316-2.933588-2.9336v-1.6128c0-.3033.246148-.5495.549488-.5495.30335 0 .54949.2462.54949.5495v1.6128c0 1.011.82191 1.8346 1.83461 1.8346h1.63075c.30334 0 .54949.2461.54949.5495 0 .3033-.24615.5495-.54949.5495zm0-.1c-1.56243 0-2.833588-1.2712-2.833588-2.8336v-1.6128c0-.2481.201368-.4495.449488-.4495s.44949.2014.44949.4495v1.6128c0 1.0662.86662 1.9346 1.93461 1.9346h1.63075c.24811 0 .44949.2013.44949.4495 0 .2481-.20138.4495-.44949.4495z" fill-rule="evenodd"/></g></svg>

<svg width="18" height="18" viewBox="0 0 18 18" fill="none" xmlns="http://www.w3.org/2000/svg">
<path d="M6.38477 6.82692C6.38477 6.5788 6.1834 6.37743 5.93528 6.37743C5.68716 6.37743 5.48579 6.5788 5.48579 6.82692V8.14663C5.48579 8.39474 5.68716 8.59612 5.93528 8.59612C6.1834 8.59612 6.38477 8.39474 6.38477 8.14663V6.82692Z" fill="white"/>
<path fill-rule="evenodd" clip-rule="evenodd" d="M5.93528 6.27743C6.23863 6.27743 6.48477 6.52358 6.48477 6.82692V8.14663C6.48477 8.44997 6.23863 8.69612 5.93528 8.69612C5.63193 8.69612 5.38579 8.44997 5.38579 8.14663V6.82692C5.38579 6.52358 5.63193 6.27743 5.93528 6.27743ZM5.93528 6.37743C6.1834 6.37743 6.38477 6.5788 6.38477 6.82692V8.14663C6.38477 8.39474 6.1834 8.59612 5.93528 8.59612C5.68716 8.59612 5.48579 8.39474 5.48579 8.14663V6.82692C5.48579 6.5788 5.68716 6.37743 5.93528 6.37743Z" fill="white"/>
<path d="M12.8971 8.14663V6.82692C12.8971 6.5788 12.6957 6.37743 12.4476 6.37743C12.1995 6.37743 11.9981 6.5788 11.9981 6.82692V8.14663C11.9981 8.39474 12.1995 8.59612 12.4476 8.59612C12.6957 8.59612 12.8971 8.39474 12.8971 8.14663Z" fill="white"/>
<path fill-rule="evenodd" clip-rule="evenodd" d="M12.9971 6.82692V8.14663C12.9971 8.44997 12.751 8.69612 12.4476 8.69612C12.1443 8.69612 11.8981 8.44997 11.8981 8.14663V6.82692C11.8981 6.52358 12.1443 6.27743 12.4476 6.27743C12.751 6.27743 12.9971 6.52358 12.9971 6.82692ZM12.8971 6.82692V8.14663C12.8971 8.39474 12.6957 8.59612 12.4476 8.59612C12.1995 8.59612 11.9981 8.39474 11.9981 8.14663V6.82692C11.9981 6.5788 12.1995 6.37743 12.4476 6.37743C12.6957 6.37743 12.8971 6.5788 12.8971 6.82692Z" fill="white"/>
<path d="M8.49385 11.1129C8.90199 11.1129 9.22742 11.0051 9.46475 10.7893C9.78838 10.4944 9.80457 10.1277 9.80457 10.0557V6.70974C9.80457 6.46162 9.60319 6.26025 9.35508 6.26025C9.10696 6.26025 8.90559 6.46162 8.90559 6.70974V10.0414C8.88581 10.1726 8.66286 10.2373 8.33384 10.205C8.08572 10.1798 7.86637 10.3632 7.84299 10.6095C7.81962 10.8576 8.00121 11.077 8.24753 11.1004C8.33383 11.1093 8.41474 11.1129 8.49385 11.1129Z" fill="white"/>
<path fill-rule="evenodd" clip-rule="evenodd" d="M9.53202 10.8633C9.27156 11.1001 8.91965 11.2129 8.49385 11.2129C8.41162 11.2129 8.32724 11.2092 8.23717 11.1998C7.93568 11.1712 7.7149 10.903 7.74343 10.6001C7.77197 10.2994 8.03978 10.0747 8.34378 10.1055C8.5013 10.1209 8.62536 10.1122 8.70806 10.0884C8.78359 10.0667 8.80147 10.0409 8.80559 10.0304V10.0414H8.90559L8.8067 10.0265C8.80658 10.0273 8.80628 10.0286 8.80559 10.0304V6.70974C8.80559 6.40639 9.05173 6.16025 9.35508 6.16025C9.65842 6.16025 9.90457 6.40639 9.90457 6.70974V10.0557C9.90457 10.1391 9.88624 10.5406 9.53202 10.8633Z" fill="white"/>
<path d="M9.18416 13.8621C10.3816 13.8621 11.5035 13.3569 12.113 12.5442C12.2623 12.3464 12.2227 12.0641 12.0231 11.9149C11.8254 11.7657 11.5431 11.8052 11.3939 12.0048C10.9498 12.5963 10.1029 12.9631 9.18416 12.9631C8.2654 12.9631 7.41856 12.5963 6.97447 12.0048C6.82524 11.807 6.54296 11.7657 6.34518 11.9149C6.14741 12.0641 6.10605 12.3464 6.25528 12.5442C6.86479 13.3569 7.98672 13.8621 9.18416 13.8621Z" fill="white"/>
<path fill-rule="evenodd" clip-rule="evenodd" d="M6.97447 12.0048C7.41856 12.5963 8.2654 12.9631 9.18416 12.9631C10.1029 12.9631 10.9498 12.5963 11.3939 12.0048C11.5431 11.8052 11.8254 11.7657 12.0231 11.9149C12.2227 12.0641 12.2623 12.3464 12.113 12.5442C11.5035 13.3569 10.3816 13.8621 9.18416 13.8621C7.98672 13.8621 6.86479 13.3569 6.25528 12.5442C6.10605 12.3464 6.14741 12.0641 6.34518 11.9149C6.54296 11.7657 6.82524 11.807 6.97447 12.0048ZM6.17537 12.6043C5.99253 12.3618 6.04373 12.0171 6.28495 11.8351C6.52741 11.6521 6.87225 11.7033 7.05429 11.9446C7.47491 12.5048 8.28833 12.8631 9.18416 12.8631C10.08 12.8631 10.8933 12.505 11.3139 11.9448C11.4963 11.701 11.8412 11.6526 12.0832 11.8349C12.327 12.0173 12.3754 12.3624 12.193 12.6043C11.561 13.4467 10.4067 13.9621 9.18416 13.9621C7.96162 13.9621 6.80728 13.4467 6.17537 12.6043Z" fill="white"/>
<path d="M0.999902 3.8348V5.48532C0.999902 5.73344 1.20127 5.93481 1.44939 5.93481C1.69751 5.93481 1.89888 5.73344 1.89888 5.48532V3.8348C1.89888 2.76681 2.7673 1.89839 3.83349 1.89839H5.46424C5.71235 1.89839 5.91373 1.69702 5.91373 1.4489C5.91373 1.20079 5.71235 0.999414 5.46424 0.999414H3.83349C2.27106 0.999414 0.999902 2.27057 0.999902 3.8348Z" fill="white"/>
<path fill-rule="evenodd" clip-rule="evenodd" d="M0.899902 5.48532V3.8348C0.899902 2.21538 2.21579 0.899414 3.83349 0.899414H5.46424C5.76758 0.899414 6.01373 1.14556 6.01373 1.4489C6.01373 1.75225 5.76758 1.99839 5.46424 1.99839H3.83349C2.82259 1.99839 1.99888 2.82198 1.99888 3.8348V5.48532C1.99888 5.78867 1.75274 6.03481 1.44939 6.03481C1.14605 6.03481 0.899902 5.78867 0.899902 5.48532ZM0.999902 5.48532V3.8348C0.999902 2.27057 2.27106 0.999414 3.83349 0.999414H5.46424C5.71235 0.999414 5.91373 1.20079 5.91373 1.4489C5.91373 1.69702 5.71235 1.89839 5.46424 1.89839H3.83349C2.7673 1.89839 1.89888 2.76681 1.89888 3.8348V5.48532C1.89888 5.73344 1.69751 5.93481 1.44939 5.93481C1.20127 5.93481 0.999902 5.73344 0.999902 5.48532Z" fill="white"/>
<path d="M17.0018 3.8348C17.0018 2.27237 15.7306 0.999414 14.1664 0.999414H12.5357C12.2875 0.999414 12.0862 1.20079 12.0862 1.4489C12.0862 1.69702 12.2875 1.89839 12.5357 1.89839H14.1664C15.2344 1.89839 16.1028 2.76681 16.1028 3.8348V5.48532C16.1028 5.73344 16.3042 5.93481 16.5523 5.93481C16.8004 5.93481 17.0018 5.73344 17.0018 5.48532V3.8348Z" fill="white"/>
<path fill-rule="evenodd" clip-rule="evenodd" d="M14.1664 0.899414C15.7859 0.899414 17.1018 2.21718 17.1018 3.8348V5.48532C17.1018 5.78867 16.8556 6.03481 16.5523 6.03481C16.249 6.03481 16.0028 5.78867 16.0028 5.48532V3.8348C16.0028 2.82204 15.1792 1.99839 14.1664 1.99839H12.5357C12.2323 1.99839 11.9862 1.75225 11.9862 1.4489C11.9862 1.14556 12.2323 0.899414 12.5357 0.899414H14.1664ZM14.1664 0.999414C15.7306 0.999414 17.0018 2.27237 17.0018 3.8348V5.48532C17.0018 5.73344 16.8004 5.93481 16.5523 5.93481C16.3042 5.93481 16.1028 5.73344 16.1028 5.48532V3.8348C16.1028 2.76681 15.2344 1.89839 14.1664 1.89839H12.5357C12.2875 1.89839 12.0862 1.69702 12.0862 1.4489C12.0862 1.20079 12.2875 0.999414 12.5357 0.999414H14.1664Z" fill="white"/>
<path d="M17.0018 12.5529C17.0018 12.3048 16.8004 12.1034 16.5523 12.1034C16.3042 12.1034 16.1028 12.3048 16.1028 12.5529V14.1657C16.1028 15.2337 15.2344 16.1003 14.1664 16.1003H12.5357C12.2875 16.1003 12.0862 16.3016 12.0862 16.5498C12.0862 16.7979 12.2875 16.9993 12.5357 16.9993H14.1664C15.7288 16.9993 17.0018 15.7281 17.0018 14.1657V12.5529Z" fill="white"/>
<path fill-rule="evenodd" clip-rule="evenodd" d="M16.5523 12.0034C16.8556 12.0034 17.1018 12.2496 17.1018 12.5529V14.1657C17.1018 15.7834 15.784 17.0993 14.1664 17.0993H12.5357C12.2323 17.0993 11.9862 16.8531 11.9862 16.5498C11.9862 16.2464 12.2323 16.0003 12.5357 16.0003H14.1664C15.1793 16.0003 16.0028 15.1783 16.0028 14.1657V12.5529C16.0028 12.2496 16.249 12.0034 16.5523 12.0034ZM16.5523 12.1034C16.8004 12.1034 17.0018 12.3048 17.0018 12.5529V14.1657C17.0018 15.7281 15.7288 16.9993 14.1664 16.9993H12.5357C12.2875 16.9993 12.0862 16.7979 12.0862 16.5498C12.0862 16.3016 12.2875 16.1003 12.5357 16.1003H14.1664C15.2344 16.1003 16.1028 15.2337 16.1028 14.1657V12.5529C16.1028 12.3048 16.3042 12.1034 16.5523 12.1034Z" fill="white"/>
<path d="M0.999902 14.1657C0.999902 15.7281 2.27106 16.9993 3.83349 16.9993H5.46424C5.71235 16.9993 5.91373 16.7979 5.91373 16.5498C5.91373 16.3016 5.71235 16.1003 5.46424 16.1003H3.83349C2.7655 16.1003 1.89888 15.2319 1.89888 14.1657V12.5529C1.89888 12.3048 1.69751 12.1034 1.44939 12.1034C1.20127 12.1034 0.999902 12.3048 0.999902 12.5529V14.1657Z" fill="white"/>
<path fill-rule="evenodd" clip-rule="evenodd" d="M3.83349 17.0993C2.21583 17.0993 0.899902 15.7833 0.899902 14.1657V12.5529C0.899902 12.2496 1.14605 12.0034 1.44939 12.0034C1.75274 12.0034 1.99888 12.2496 1.99888 12.5529V14.1657C1.99888 15.1767 2.82079 16.0003 3.83349 16.0003H5.46424C5.76758 16.0003 6.01373 16.2464 6.01373 16.5498C6.01373 16.8531 5.76758 17.0993 5.46424 17.0993H3.83349ZM3.83349 16.9993C2.27106 16.9993 0.999902 15.7281 0.999902 14.1657V12.5529C0.999902 12.3048 1.20127 12.1034 1.44939 12.1034C1.69751 12.1034 1.89888 12.3048 1.89888 12.5529V14.1657C1.89888 15.2319 2.7655 16.1003 3.83349 16.1003H5.46424C5.71235 16.1003 5.91373 16.3016 5.91373 16.5498C5.91373 16.7979 5.71235 16.9993 5.46424 16.9993H3.83349Z" fill="white"/>
</svg>
